Sources/FrostedUI/Resources/Icons.xcassets/starHalf12.imageset/star-half-12.svg

<svg width="12" height="12" viewBox="0 0 12 12" fill="none" xmlns="http://www.w3.org/2000/svg" data-fui-icon="true">
  <path
    fill-rule="evenodd"
    clip-rule="evenodd"
    d="M11.5701 4.65C11.4341 4.232 11.0781 3.936 10.6411 3.879L8.11608 3.548L7.01809 1.267C6.83009 0.871 6.43907 0.625 5.99907 0.625C5.55907 0.625 5.17008 0.870999 4.98008 1.266L3.88209 3.549L1.35708 3.88C0.920076 3.937 0.564075 4.233 0.428075 4.651C0.293075 5.069 0.407078 5.516 0.728078 5.818L2.57209 7.556L2.10907 10.041C2.02907 10.471 2.20008 10.899 2.55408 11.157C2.90808 11.417 3.36908 11.447 3.75608 11.239L5.99808 10.031L8.24009 11.24C8.41009 11.331 8.59408 11.377 8.77808 11.377C9.01108 11.377 9.24408 11.303 9.44208 11.158C9.79608 10.9 9.96707 10.472 9.88707 10.041L9.42408 7.557L11.2681 5.819C11.5881 5.517 11.7031 5.07 11.5681 4.652L11.5701 4.65ZM8.24907 6.604C7.96707 6.87 7.84307 7.256 7.91507 7.63L8.27208 9.55L6.53608 8.614C6.36808 8.523 6.18408 8.478 6.00008 8.478V2.608L6.85009 4.375C7.01509 4.722 7.34109 4.959 7.72309 5.008L9.67008 5.263L8.24907 6.602V6.604Z"
    fill="currentColor"
  />
</svg>

<svg xmlns="http://www.w3.org/2000/svg" width="12" height="12" fill="none" data-fui-icon="true" viewBox="0 0 12 12"><path fill="currentColor" fill-rule="evenodd" d="M11.57 4.65a1.12 1.12 0 0 0-.929-.771l-2.525-.331-1.098-2.281A1.12 1.12 0 0 0 6 .625c-.44 0-.829.246-1.019.641L3.882 3.549l-2.525.331a1.12 1.12 0 0 0-.929.771c-.135.418-.02.865.3 1.167l1.844 1.738-.463 2.485c-.08.43.091.858.445 1.116.354.26.815.29 1.202.082l2.242-1.208L8.24 11.24a1.124 1.124 0 0 0 1.202-.082c.354-.258.525-.686.445-1.117l-.463-2.484 1.844-1.738c.32-.302.435-.749.3-1.167zM8.25 6.604a1.12 1.12 0 0 0-.335 1.026l.357 1.92-1.736-.936A1.1 1.1 0 0 0 6 8.478v-5.87l.85 1.767c.165.347.491.584.873.633l1.947.255-1.42 1.339z" clip-rule="evenodd"/></svg>
